X:1
T:Jingle Bells Tenor
T:Jingle Bells Tenor
L:1/8
M:2/4
K:G
V:1 treble-8 nm="Piano" snm="Pno."
V:1
 d d d2 | d d d2 | d A B3/2 c/ | B2 z2 | e e e3/2 e/ | d d d d/ d/ |[K:treble-8] e e e ^c | d3 z | %8
 d d d2 | d d d2 | d A B3/2 c/ | B2 z2 |[K:treble-8] e e e e | d d d d/ d/ | c c c c | B3 B | %16
[K:treble-8] B d d B | B3 B/ B/ | B d d d | G3 G | G G G G |[K:treble-8] A3 A | d d d d | d3 d | %24
 B d d B | B3 B | B d d d | G3 G | G G c c | B B B B | c c c c | B2 A2!D.C.! |] %32

